epam-assets/icon-sources/18/content-deselect-outline.svg

<svg width="18" height="18" viewBox="0 0 18 18" fill="none" xmlns="http://www.w3.org/2000/svg">
<g id="18/content-deselect-outline">
<path id="icon" fill-rule="evenodd" clip-rule="evenodd" d="M5.25 8.25V9.75H12.75V8.25H5.25ZM9 1.5C4.86 1.5 1.5 4.86 1.5 9C1.5 13.14 4.86 16.5 9 16.5C13.14 16.5 16.5 13.14 16.5 9C16.5 4.86 13.14 1.5 9 1.5ZM9 15C5.6925 15 3 12.3075 3 9C3 5.6925 5.6925 3 9 3C12.3075 3 15 5.6925 15 9C15 12.3075 12.3075 15 9 15Z" fill="#6C6F80"/>
</g>
</svg>

<svg xmlns="http://www.w3.org/2000/svg" width="18" height="18" fill="none" viewBox="0 0 18 18">
  <path fill="#6C6F80" fill-rule="evenodd" d="M5.25 8.25v1.5h7.5v-1.5h-7.5ZM9 1.5C4.86 1.5 1.5 4.86 1.5 9c0 4.14 3.36 7.5 7.5 7.5 4.14 0 7.5-3.36 7.5-7.5 0-4.14-3.36-7.5-7.5-7.5ZM9 15c-3.308 0-6-2.693-6-6 0-3.308 2.692-6 6-6 3.307 0 6 2.692 6 6 0 3.307-2.693 6-6 6Z" clip-rule="evenodd"/>
</svg>
